src/static/unknown-project.svg

<svg
  width="76"
  height="84"
  viewBox="0 0 76 84"
  fill="none"
  xmlns="http://www.w3.org/2000/svg"
>
  <mask
    id="mask0_8272_51063"
    style="mask-type:alpha"
    maskUnits="userSpaceOnUse"
    x="0"
    y="0"
    width="76"
    height="84"
  >
    <path
      d="M29.3397 2.70368C34.6987 -0.457218 41.3013 -0.457217 46.6602 2.70368L66.8397 14.6062C72.1987 17.7671 75.5 23.6087 75.5 29.9305V53.7355C75.5 60.0573 72.1987 65.8989 66.8397 69.0598L46.6602 80.9623C41.3013 84.1232 34.6987 84.1232 29.3397 80.9623L9.16025 69.0598C3.80127 65.8989 0.5 60.0573 0.5 53.7355V29.9305C0.5 23.6087 3.80127 17.7671 9.16025 14.6062L29.3397 2.70368Z"
      fill="#030303"
    />
  </mask>
  <g mask="url(#mask0_8272_51063)">
    <rect
      x="-7"
      y="-4"
      width="89"
      height="88.644"
      fill="#F9F9F9"
    />
    <path
      d="M27.539 40.671C25.0828 42.0208 23.4324 43.6392 23.6824 44.886C24.1774 47.3539 30.9405 48.0444 38.7882 46.4283C46.6359 44.8121 52.5964 41.5014 52.1015 39.0335C51.8292 37.6761 49.661 36.8565 46.459 36.6625"
      stroke="#183C4A"
    />
    <path
      fill-rule="evenodd"
      clip-rule="evenodd"
      d="M37.7853 32.0068C32.3484 32.0068 27.9297 36.4748 27.9297 42.0002C27.9297 47.5256 32.3484 51.9935 37.7853 51.9935C43.2221 51.9935 47.6408 47.5256 47.6408 42.0002C47.6408 36.4748 43.2221 32.0068 37.7853 32.0068ZM26.9297 42.0002C26.9297 35.935 31.7837 31.0068 37.7853 31.0068C43.7868 31.0068 48.6408 35.935 48.6408 42.0002C48.6408 48.0654 43.7868 52.9935 37.7853 52.9935C31.7837 52.9935 26.9297 48.0654 26.9297 42.0002Z"
      fill="#183C4A"
    />
    <path
      d="M28.2564 37.4479C27.9807 37.4643 27.7706 37.7011 27.787 37.9767C27.8034 38.2524 28.0402 38.4625 28.3159 38.4461L28.2564 37.4479ZM33.7861 39.9736L33.4635 39.5916L33.7861 39.9736ZM27.3842 42.716C27.22 42.938 27.2667 43.2511 27.4887 43.4154C27.7106 43.5797 28.0237 43.5329 28.188 43.311L27.3842 42.716ZM28.3159 38.4461C29.7231 38.3622 31.6436 38.3661 32.8969 38.6265C33.207 38.6909 33.456 38.7672 33.6382 38.8512C33.8289 38.9392 33.8947 39.0121 33.9108 39.0384C33.9136 39.0432 33.914 39.0448 33.9136 39.0437C33.9135 39.0432 33.9133 39.0426 33.9132 39.0419C33.913 39.0411 33.913 39.0407 33.913 39.0408C33.913 39.0409 33.9131 39.0419 33.9129 39.0438C33.9127 39.0458 33.9123 39.049 33.9114 39.0536C33.9095 39.0628 33.9053 39.078 33.8961 39.0995C33.8548 39.195 33.7382 39.3596 33.4635 39.5916L34.1087 40.3556C34.434 40.0809 34.6841 39.7969 34.8141 39.4959C34.9557 39.168 34.9504 38.8226 34.7646 38.5179C34.5989 38.2461 34.3254 38.067 34.0571 37.9432C33.7803 37.8155 33.4507 37.7202 33.1003 37.6474C31.712 37.359 29.6825 37.3629 28.2564 37.4479L28.3159 38.4461ZM33.4635 39.5916C32.0531 40.7826 31.0197 41.012 30.1243 41.1935C29.6731 41.2849 29.1883 41.3741 28.7268 41.585C28.2456 41.8049 27.8057 42.1467 27.3842 42.716L28.188 43.311C28.5166 42.867 28.8267 42.6388 29.1424 42.4945C29.4777 42.3413 29.8367 42.2721 30.3229 42.1736C31.3025 41.975 32.5192 41.6978 34.1087 40.3556L33.4635 39.5916Z"
      fill="#183C4A"
    />
    <path
      d="M34.8375 52.3546C34.9597 52.6022 35.2595 52.7039 35.5071 52.5817C35.7548 52.4595 35.8565 52.1597 35.7343 51.9121L34.8375 52.3546ZM38.2859 48.5868L38.2299 48.0899L38.2859 48.5868ZM46.7856 47.0601C47.0618 47.0601 47.2856 46.8363 47.2856 46.5601C47.2856 46.284 47.0618 46.0601 46.7856 46.0601V47.0601ZM35.7343 51.9121C35.5279 51.4938 35.4263 50.8826 35.6936 50.3596C35.9494 49.8591 36.629 49.2765 38.3418 49.0836L38.2299 48.0899C36.3428 48.3024 35.2724 48.9863 34.8031 49.9045C34.3454 50.8001 34.5439 51.7595 34.8375 52.3546L35.7343 51.9121ZM38.3418 49.0836C40.6192 48.8272 41.936 48.4379 42.7618 48.0195C43.6051 47.5922 43.9298 47.1259 44.1415 46.9113L43.4298 46.2089C43.1415 46.5011 42.9663 46.7947 42.3098 47.1274C41.6356 47.469 40.4526 47.8396 38.2299 48.0899L38.3418 49.0836ZM44.1415 46.9113C44.1342 46.9187 44.1954 46.8662 44.4395 46.8444C44.6581 46.8249 44.9338 46.8371 45.2352 46.8676C45.5338 46.8978 45.8339 46.9434 46.1026 46.9834C46.3488 47.0201 46.6139 47.0601 46.7856 47.0601V46.0601C46.7074 46.0601 46.535 46.0368 46.25 45.9944C45.9874 45.9552 45.6625 45.9058 45.3361 45.8727C45.0125 45.8399 44.6632 45.8204 44.3505 45.8484C44.0634 45.8741 43.6871 45.9482 43.4298 46.2089L44.1415 46.9113Z"
      fill="#183C4A"
    />
    <path
      d="M43.0788 32.8809C43.0788 32.6047 42.855 32.3809 42.5789 32.3809C42.3027 32.3809 42.0788 32.6047 42.0788 32.8808L43.0788 32.8809ZM39.1076 37.634L39.364 38.0632L39.1076 37.634ZM39.1074 41.955L38.9498 42.4295L39.1074 41.955ZM47.5633 40.2421C47.8105 40.3651 48.1107 40.2645 48.2337 40.0173C48.3568 39.7701 48.2562 39.4699 48.009 39.3469L47.5633 40.2421ZM42.0788 32.8808C42.0788 33.5773 41.677 34.4262 41.0257 35.2523C40.3847 36.0655 39.5622 36.7799 38.8511 37.2048L39.364 38.0632C40.1869 37.5715 41.0999 36.7735 41.8111 35.8714C42.512 34.9822 43.0788 33.9129 43.0788 32.8809L42.0788 32.8808ZM38.8511 37.2048C37.5867 37.9602 37.178 39.1307 37.3098 40.1808C37.435 41.179 38.0673 42.1365 38.9498 42.4295L39.2649 41.4804C38.846 41.3414 38.3936 40.7865 38.302 40.0563C38.2169 39.378 38.4589 38.604 39.364 38.0632L38.8511 37.2048ZM38.9498 42.4295C39.6174 42.6511 40.2889 42.3148 40.8335 41.9758C41.1252 41.7943 41.4332 41.576 41.7427 41.3584C42.0569 41.1375 42.3796 40.9123 42.7201 40.7004C44.0703 39.8602 45.6195 39.2743 47.5633 40.2421L48.009 39.3469C45.6132 38.1541 43.6718 38.9303 42.1918 39.8514C41.8247 40.0798 41.4812 40.3198 41.1676 40.5403C40.8491 40.7642 40.5675 40.9635 40.3051 41.1268C39.7414 41.4777 39.4461 41.5406 39.2649 41.4804L38.9498 42.4295Z"
      fill="#183C4A"
    />
    <path
      d="M29.3397 2.70368C34.6987 -0.457218 41.3013 -0.457217 46.6602 2.70368L66.8397 14.6062C72.1987 17.7671 75.5 23.6087 75.5 29.9305V53.7355C75.5 60.0573 72.1987 65.8989 66.8397 69.0598L46.6602 80.9623C41.3013 84.1232 34.6987 84.1232 29.3397 80.9623L9.16025 69.0598C3.80127 65.8989 0.5 60.0573 0.5 53.7355V29.9305C0.5 23.6087 3.80127 17.7671 9.16025 14.6062L29.3397 2.70368Z"
      stroke="#DADADA"
      stroke-linejoin="round"
    />
  </g>
</svg>

<svg xmlns="http://www.w3.org/2000/svg" width="76" height="84" fill="none"><mask id="a" width="76" height="84" x="0" y="0" maskUnits="userSpaceOnUse" style="mask-type:alpha"><path fill="#030303" d="M29.34 2.704a17.004 17.004 0 0 1 17.32 0l20.18 11.902c5.359 3.161 8.66 9.003 8.66 15.324v23.806c0 6.321-3.301 12.163-8.66 15.324L46.66 80.962a17.004 17.004 0 0 1-17.32 0L9.16 69.06C3.801 65.899.5 60.057.5 53.735V29.93c0-6.321 3.301-12.163 8.66-15.324L29.34 2.704Z"/></mask><g mask="url(#a)"><path fill="#F9F9F9" d="M-7-4h89v88.644H-7z"/><path stroke="#183C4A" d="M27.539 40.671c-2.456 1.35-4.107 2.968-3.857 4.215.495 2.468 7.259 3.158 15.106 1.542 7.848-1.616 13.808-4.927 13.314-7.395-.273-1.357-2.441-2.177-5.643-2.37"/><path fill="#183C4A" fill-rule="evenodd" d="M37.785 32.007c-5.437 0-9.855 4.468-9.855 9.993 0 5.526 4.418 9.993 9.855 9.993s9.856-4.467 9.856-9.993c0-5.525-4.419-9.993-9.856-9.993ZM26.93 42c0-6.065 4.854-10.993 10.855-10.993 6.002 0 10.856 4.928 10.856 10.993s-4.854 10.993-10.856 10.993c-6.001 0-10.855-4.928-10.855-10.993Z" clip-rule="evenodd"/><path fill="#183C4A" d="M28.256 37.448a.5.5 0 1 0 .06.998l-.06-.998Zm5.53 2.526-.322-.382.322.382Zm-6.402 2.742a.5.5 0 0 0 .804.595l-.804-.595Zm.932-4.27c1.407-.084 3.328-.08 4.58.18.311.065.56.141.742.225.19.088.257.161.273.187l.003.006v-.002l-.001-.001v.003l-.002.01a.246.246 0 0 1-.015.045c-.041.096-.158.26-.432.493l.645.764c.325-.275.575-.56.705-.86.142-.328.136-.673-.05-.978-.165-.272-.439-.451-.707-.575a4.513 4.513 0 0 0-.957-.296c-1.388-.288-3.418-.284-4.844-.2l.06 1Zm5.148 1.146c-1.41 1.19-2.444 1.42-3.34 1.602-.45.09-.936.18-1.397.391-.481.22-.921.562-1.343 1.131l.804.595c.329-.444.639-.672.954-.816.336-.154.695-.223 1.18-.321.98-.199 2.197-.476 3.787-1.818l-.645-.764ZM34.837 52.355a.5.5 0 0 0 .897-.443l-.897.443Zm3.449-3.768-.056-.497.056.497Zm8.5-1.527a.5.5 0 1 0 0-1v1Zm-11.052 4.852c-.206-.418-.308-1.03-.04-1.552.255-.5.935-1.084 2.648-1.276l-.112-.994c-1.887.212-2.958.896-3.427 1.814-.458.896-.26 1.855.035 2.45l.896-.442Zm2.608-2.828c2.277-.257 3.594-.646 4.42-1.065.843-.427 1.168-.893 1.38-1.108l-.712-.702c-.288.292-.464.586-1.12.918-.674.342-1.857.713-4.08.963l.112.994Zm5.8-2.173c-.008.008.053-.045.297-.067.22-.02.495-.007.796.024.299.03.599.075.868.115.246.037.51.077.683.077v-1c-.079 0-.251-.023-.536-.066-.263-.039-.587-.088-.914-.121a5.365 5.365 0 0 0-.986-.025c-.287.026-.663.1-.92.36l.712.703ZM43.079 32.88a.5.5 0 1 0-1 0h1Zm-3.971 4.754.256.43-.256-.43Zm0 4.321-.158.474.157-.474Zm8.455-1.713a.5.5 0 0 0 .446-.895l-.446.895Zm-5.484-7.361c0 .696-.402 1.545-1.053 2.371-.641.813-1.464 1.528-2.175 1.953l.513.858c.823-.492 1.736-1.29 2.447-2.192.701-.889 1.268-1.958 1.268-2.99h-1Zm-3.228 4.324c-1.264.755-1.673 1.926-1.541 2.976.125.998.757 1.956 1.64 2.248l.315-.949c-.419-.139-.871-.694-.963-1.424-.085-.678.157-1.452 1.062-1.993l-.513-.858Zm.099 5.224c.667.222 1.339-.114 1.883-.453.292-.182.6-.4.91-.618.314-.22.637-.446.977-.658 1.35-.84 2.9-1.426 4.843-.458l.446-.895c-2.396-1.193-4.337-.417-5.817.504-.367.229-.71.469-1.024.69-.319.223-.6.423-.863.586-.564.35-.859.414-1.04.353l-.315.95Z"/><path stroke="#DADADA" stroke-linejoin="round" d="M29.34 2.704a17.004 17.004 0 0 1 17.32 0l20.18 11.902c5.359 3.161 8.66 9.003 8.66 15.324v23.806c0 6.321-3.301 12.163-8.66 15.324L46.66 80.962a17.004 17.004 0 0 1-17.32 0L9.16 69.06C3.801 65.899.5 60.057.5 53.735V29.93c0-6.321 3.301-12.163 8.66-15.324L29.34 2.704Z"/></g></svg>
